img/brand/Amazon_logo.svg

<svg width="116" height="35" viewBox="0 0 116 35" fill="none" xmlns="http://www.w3.org/2000/svg">
<g clip-path="url(#clip0)">
<path fill-rule="evenodd" clip-rule="evenodd" d="M71.9642 27.3711C65.2232 32.3458 55.4526 35 47.0403 35C35.2449 35 24.626 30.6319 16.5924 23.367C15.9612 22.7958 16.5268 22.0172 17.2842 22.4621C25.954 27.5126 36.6739 30.5511 47.7472 30.5511C55.2153 30.5511 63.4307 29.004 70.9846 25.7937C72.1258 25.3084 73.0801 26.542 71.9642 27.3711Z" fill="#FF9900"/>
<path fill-rule="evenodd" clip-rule="evenodd" d="M74.7665 24.1608C73.9081 23.0587 69.0708 23.64 66.8996 23.8979C66.2381 23.9788 66.1371 23.4024 66.733 22.9879C70.5857 20.273 76.9075 21.0566 77.6447 21.9666C78.3819 22.8817 77.4528 29.2265 73.8324 32.2548C73.277 32.7199 72.7468 32.4722 72.9942 31.8554C73.8072 29.823 75.63 25.268 74.7665 24.1608Z" fill="#FF9900"/>
<path fill-rule="evenodd" clip-rule="evenodd" d="M67.0511 3.82211V1.18309C67.0511 0.783694 67.3541 0.515747 67.7176 0.515747H79.5181C79.8968 0.515747 80.1997 0.78875 80.1997 1.18309V3.44294C80.1947 3.82211 79.8766 4.31756 79.311 5.10118L73.1962 13.8423C75.4684 13.7867 77.8669 14.1254 79.9271 15.2882C80.3916 15.5511 80.5178 15.9353 80.5532 16.3145V19.1305C80.5532 19.5147 80.129 19.9647 79.6847 19.7321C76.0542 17.8261 71.232 17.6189 67.2177 19.7523C66.8087 19.9748 66.3795 19.5299 66.3795 19.1457V16.4712C66.3795 16.0415 66.3846 15.3085 66.8138 14.6563L73.8981 4.4844H67.7328C67.354 4.4844 67.0511 4.21645 67.0511 3.82211Z" fill="black"/>
<path fill-rule="evenodd" clip-rule="evenodd" d="M24.0048 20.2882H20.4147C20.0714 20.2629 19.7987 20.005 19.7734 19.6764V1.22851C19.7734 0.859451 20.0815 0.566224 20.4652 0.566224H23.813C24.1614 0.58138 24.4391 0.849337 24.4643 1.18301V3.59454H24.53C25.4035 1.2639 27.0446 0.176941 29.2562 0.176941C31.5032 0.176941 32.9069 1.2639 33.9168 3.59454C34.7853 1.2639 36.7596 0.176941 38.8753 0.176941C40.3801 0.176941 42.0262 0.798781 43.031 2.19413C44.1671 3.7462 43.9349 6.001 43.9349 7.97775L43.9298 19.6208C43.9298 19.9899 43.6218 20.2882 43.238 20.2882H39.653C39.2945 20.2629 39.0066 19.9747 39.0066 19.6208V9.84327C39.0066 9.0647 39.0773 7.12335 38.9056 6.38523C38.638 5.14661 37.8352 4.79777 36.795 4.79777C35.9265 4.79777 35.0176 5.37916 34.649 6.3094C34.2804 7.23963 34.3157 8.79675 34.3157 9.84327V19.6208C34.3157 19.9899 34.0077 20.2882 33.624 20.2882H30.0389C29.6753 20.2629 29.3926 19.9747 29.3926 19.6208L29.3875 9.84327C29.3875 7.78563 29.7258 4.75732 27.1759 4.75732C24.5956 4.75732 24.6966 7.7098 24.6966 9.84327V19.6208C24.6966 19.9899 24.3886 20.2882 24.0048 20.2882" fill="black"/>
<path fill-rule="evenodd" clip-rule="evenodd" d="M90.3591 0.176941C95.6862 0.176941 98.5694 4.75732 98.5694 10.5814C98.5694 16.2083 95.3833 20.6724 90.3591 20.6724C85.1279 20.6724 82.28 16.092 82.28 10.3842C82.28 4.64104 85.1632 0.176941 90.3591 0.176941ZM90.3894 3.94337C87.7435 3.94337 87.5769 7.55307 87.5769 9.80282C87.5769 12.0576 87.5415 16.8706 90.3591 16.8706C93.1413 16.8706 93.2726 12.9879 93.2726 10.6218C93.2726 9.0647 93.207 7.20424 92.7374 5.728C92.3334 4.44388 91.5306 3.94337 90.3894 3.94337Z" fill="black"/>
<path fill-rule="evenodd" clip-rule="evenodd" d="M105.477 20.2882H101.902C101.543 20.2629 101.256 19.9747 101.256 19.6208L101.251 1.16784C101.281 0.829114 101.579 0.566224 101.942 0.566224H105.27C105.583 0.58138 105.841 0.793727 105.911 1.0819V3.90292H105.977C106.982 1.38018 108.39 0.176941 110.87 0.176941C112.48 0.176941 114.051 0.758337 115.061 2.35085C116 3.82709 116 6.3094 116 8.09402V19.7068C115.959 20.0303 115.662 20.2882 115.308 20.2882H111.708C111.38 20.2629 111.107 20.0202 111.072 19.7068V9.68654C111.072 7.66935 111.304 4.71688 108.825 4.71688C107.951 4.71688 107.148 5.30333 106.749 6.19312C106.244 7.32052 106.179 8.44286 106.179 9.68654V19.6208C106.174 19.9899 105.861 20.2882 105.477 20.2882" fill="black"/>
<path fill-rule="evenodd" clip-rule="evenodd" d="M57.6439 11.4762C57.6439 12.8766 57.6793 14.0445 56.9724 15.2882C56.4018 16.2993 55.4929 16.9211 54.4881 16.9211C53.1096 16.9211 52.3017 15.8696 52.3017 14.3175C52.3017 11.2538 55.0435 10.6977 57.6439 10.6977V11.4762ZM61.2644 20.2376C61.027 20.4499 60.6837 20.4651 60.4161 20.3235C59.2244 19.3326 59.0073 18.8726 58.3559 17.9272C56.3866 19.9393 54.9879 20.5409 52.438 20.5409C49.4134 20.5409 47.0654 18.6754 47.0654 14.9393C47.0654 12.0222 48.6408 10.0354 50.8929 9.06471C52.842 8.20525 55.5636 8.05359 57.6439 7.81597V7.35086C57.6439 6.49646 57.7096 5.48533 57.2046 4.74722C56.7704 4.08493 55.9322 3.81193 55.1899 3.81193C53.8215 3.81193 52.6046 4.51466 52.3067 5.97067C52.2461 6.29423 52.0088 6.61274 51.6806 6.6279L48.2015 6.25379C47.9087 6.18807 47.5805 5.95045 47.6663 5.5005C48.4641 1.27402 52.2815 0 55.6949 0C57.442 0 59.7243 0.465117 61.1028 1.78969C62.8499 3.42265 62.6832 5.60161 62.6832 7.9727V13.5743C62.6832 15.2578 63.3801 15.9959 64.0365 16.906C64.2637 17.2295 64.3142 17.6188 64.0213 17.8615C63.2892 18.4732 61.9864 19.6107 61.2694 20.2477L61.2643 20.2376" fill="black"/>
<path fill-rule="evenodd" clip-rule="evenodd" d="M10.5785 11.4765C10.5785 12.8769 10.6138 14.0447 9.90693 15.2884C9.33635 16.2995 8.43251 16.9214 7.42263 16.9214C6.04414 16.9214 5.24128 15.8698 5.24128 14.3177C5.24128 11.254 7.98311 10.6979 10.5785 10.6979V11.4765ZM14.1989 20.2379C13.9616 20.4502 13.6182 20.4654 13.3506 20.3238C12.159 19.3329 11.9469 18.8728 11.2905 17.9274C9.3212 19.9396 7.92757 20.5412 5.37257 20.5412C2.35302 20.5412 0 18.6757 0 14.9396C0 12.0225 1.58046 10.0356 3.82745 9.06496C5.77652 8.2055 8.49815 8.05383 10.5785 7.81622V7.3511C10.5785 6.4967 10.6441 5.48558 10.1443 4.74747C9.70496 4.08518 8.86676 3.81217 8.12954 3.81217C6.76116 3.81217 5.5392 4.5149 5.24128 5.97092C5.18069 6.29448 4.94337 6.61298 4.62021 6.62815L1.13612 6.25403C0.84325 6.18831 0.520088 5.9507 0.600878 5.50075C1.40373 1.27426 5.21603 0.000244141 8.62943 0.000244141C10.3765 0.000244141 12.6589 0.465361 14.0373 1.78993C15.7844 3.42289 15.6178 5.60186 15.6178 7.97294V13.5746C15.6178 15.2581 16.3146 15.9962 16.9711 16.9062C17.2033 17.2298 17.2538 17.619 16.9609 17.8617C16.2288 18.4734 14.926 19.611 14.209 20.248L14.1989 20.2378" fill="black"/>
</g>
<defs>
<clipPath id="clip0">
<rect width="116" height="35" fill="white"/>
</clipPath>
</defs>
</svg>

<svg width="116" height="35" viewBox="0 0 116 35" fill="none" xmlns="http://www.w3.org/2000/svg"><g clip-path="url(#clip0)" fill-rule="evenodd" clip-rule="evenodd"><path d="M71.964 27.371C65.224 32.346 55.453 35 47.04 35c-11.795 0-22.414-4.368-30.448-11.633-.63-.571-.065-1.35.692-.905 8.67 5.05 19.39 8.09 30.463 8.09 7.468 0 15.684-1.548 23.238-4.758 1.14-.486 2.095.748.98 1.577z" fill="#F90"/><path d="M74.766 24.16c-.858-1.101-5.695-.52-7.866-.262-.662.08-.763-.496-.167-.91 3.853-2.715 10.174-1.931 10.912-1.021.737.915-.192 7.26-3.813 10.288-.555.465-1.085.217-.838-.4.813-2.032 2.636-6.587 1.772-7.694z" fill="#F90"/><path d="M67.051 3.822V1.183c0-.4.303-.667.667-.667h11.8c.379 0 .682.273.682.667v2.26c-.005.38-.323.875-.889 1.658l-6.115 8.741c2.272-.055 4.67.283 6.731 1.446.465.263.59.647.626 1.026v2.817c0 .384-.424.834-.868.601-3.63-1.906-8.453-2.113-12.467.02-.41.223-.839-.222-.839-.606V16.47c0-.43.006-1.162.435-1.815l7.084-10.172h-6.165c-.379 0-.682-.268-.682-.662zM24.005 20.288h-3.59a.679.679 0 01-.642-.612V1.23c0-.37.308-.663.692-.663h3.348a.676.676 0 01.651.617v2.412h.066c.873-2.331 2.515-3.418 4.726-3.418 2.247 0 3.65 1.087 4.66 3.418.87-2.331 2.844-3.418 4.96-3.418 1.504 0 3.15.622 4.155 2.017 1.136 1.552.904 3.807.904 5.784L43.93 19.62a.678.678 0 01-.692.667h-3.585a.683.683 0 01-.646-.667V9.843c0-.778.07-2.72-.101-3.458-.268-1.238-1.07-1.587-2.111-1.587-.869 0-1.777.581-2.146 1.511-.369.93-.333 2.488-.333 3.534v9.778a.678.678 0 01-.692.667h-3.585a.68.68 0 01-.646-.667l-.006-9.778c0-2.057.339-5.086-2.211-5.086-2.58 0-2.48 2.953-2.48 5.086v9.778a.677.677 0 01-.691.667M90.36.177c5.326 0 8.21 4.58 8.21 10.404 0 5.627-3.187 10.091-8.21 10.091-5.232 0-8.08-4.58-8.08-10.288 0-5.743 2.883-10.207 8.08-10.207zm.03 3.766c-2.647 0-2.813 3.61-2.813 5.86 0 2.255-.035 7.068 2.782 7.068 2.782 0 2.914-3.883 2.914-6.25 0-1.556-.066-3.417-.536-4.893-.404-1.284-1.206-1.785-2.348-1.785zm15.087 16.345h-3.575a.682.682 0 01-.646-.667l-.005-18.453c.03-.339.328-.602.691-.602h3.328a.686.686 0 01.641.516v2.82h.066C106.982 1.38 108.39.178 110.87.178c1.61 0 3.181.581 4.191 2.174C116 3.828 116 6.31 116 8.095v11.613c-.041.323-.338.581-.692.581h-3.6c-.328-.025-.601-.268-.636-.581V9.687c0-2.018.232-4.97-2.247-4.97-.874 0-1.677.586-2.076 1.476-.505 1.128-.57 2.25-.57 3.494v9.934a.69.69 0 01-.702.667m-47.833-8.812c0 1.4.035 2.568-.672 3.812-.57 1.011-1.48 1.633-2.484 1.633-1.378 0-2.186-1.051-2.186-2.603 0-3.064 2.742-3.62 5.342-3.62v.778zm3.62 8.762a.749.749 0 01-.848.085c-1.192-.99-1.409-1.45-2.06-2.396-1.97 2.012-3.368 2.614-5.918 2.614-3.025 0-5.373-1.866-5.373-5.602 0-2.917 1.576-4.904 3.828-5.874 1.949-.86 4.67-1.011 6.75-1.249v-.465c0-.855.067-1.866-.438-2.604-.435-.662-1.273-.935-2.015-.935-1.368 0-2.585.703-2.883 2.159-.06.323-.298.642-.626.657l-3.48-.374c-.292-.066-.62-.304-.535-.753C48.464 1.273 52.282 0 55.695 0c1.747 0 4.03.465 5.408 1.79 1.747 1.633 1.58 3.812 1.58 6.183v5.601c0 1.684.697 2.422 1.354 3.332.227.324.277.713-.016.956-.732.611-2.035 1.749-2.752 2.386l-.005-.01m-50.685-8.762c0 1.4.035 2.569-.672 3.812-.57 1.011-1.474 1.633-2.484 1.633-1.379 0-2.182-1.051-2.182-2.603 0-3.064 2.742-3.62 5.338-3.62v.778zm3.62 8.762a.749.749 0 01-.848.086c-1.192-.991-1.404-1.451-2.06-2.397-1.97 2.013-3.363 2.614-5.918 2.614C2.353 20.541 0 18.676 0 14.94c0-2.917 1.58-4.904 3.827-5.875 1.95-.86 4.671-1.011 6.752-1.249v-.465c0-.854.065-1.865-.435-2.604-.439-.662-1.277-.935-2.014-.935-1.369 0-2.59.703-2.889 2.159-.06.323-.298.642-.62.657l-3.485-.374C.843 6.188.52 5.951.601 5.501 1.404 1.274 5.216 0 8.629 0c1.748 0 4.03.464 5.408 1.789 1.747 1.633 1.58 3.812 1.58 6.183v5.602c0 1.683.698 2.421 1.354 3.331.232.324.283.713-.01.956-.732.611-2.035 1.749-2.752 2.386l-.01-.01" fill="#000"/></g><defs><clipPath id="clip0"><path fill="#fff" d="M0 0h116v35H0z"/></clipPath></defs></svg>
